src/images/badges/most-viewed-week-zeta.svg

<svg width="40" height="60" viewBox="0 0 40 60" fill="none" xmlns="http://www.w3.org/2000/svg">
<path d="M30 1C34.9706 1 39 5.02944 39 10V30C39 34.9706 34.9706 39 30 39L19 39V50C19 54.9706 14.9706 59 10 59C5.02944 59 1 54.9706 1 50L1 30C1 25.0294 5.02944 21 10 21L21 21V10C21 5.02944 25.0294 1 30 1Z" fill="#F498AD"/>
<path d="M32.6965 7.99536C32.9271 7.99536 33.0809 8.1491 33.0809 8.35409C33.0809 8.45659 33.0553 8.53346 33.004 8.58471L26.5981 19.3467C26.5212 19.4748 26.3931 19.5773 26.2393 19.5773C26.0087 19.5773 25.855 19.4235 25.855 19.2186C25.855 19.1161 25.8806 19.0392 25.9319 18.9879L32.3378 8.22598C32.4147 8.09786 32.5428 7.99536 32.6965 7.99536Z" fill="black"/>
<path d="M30.5441 25.2657C30.5441 25.4195 30.621 25.5476 30.7747 25.6245C32.1072 26.3419 33.4652 27.8281 33.4652 30.698C33.4652 33.5934 32.1328 35.0796 30.7747 35.8227C30.621 35.9252 30.5441 36.0277 30.5441 36.1814C30.5441 36.3864 30.6722 36.5145 30.8772 36.5145C30.9541 36.5145 31.0566 36.5145 31.236 36.412C32.6709 35.6946 34.3108 33.9009 34.3108 30.7236C34.3108 27.5462 32.6709 25.7526 31.236 25.0351C31.0566 24.9582 30.9541 24.9326 30.8772 24.9326C30.6722 24.9326 30.5441 25.0607 30.5441 25.2657Z" fill="black"/>
<path d="M8.73835 35.8483C8.89209 35.9252 8.96896 36.0533 8.96896 36.2071C8.96896 36.4121 8.84084 36.5402 8.63585 36.5402C8.55898 36.5402 8.45648 36.5146 8.27712 36.4377C6.84219 35.7202 5.20227 33.9266 5.20227 30.7492C5.20227 27.5719 6.84219 25.8038 8.27712 25.0607C8.45648 24.9583 8.55898 24.9583 8.63585 24.9583C8.84084 24.9583 8.96896 25.0864 8.96896 25.2914C8.96896 25.4451 8.89209 25.5476 8.73835 25.6501C7.38029 26.3932 6.04785 27.8537 6.04785 30.7492C6.04785 33.6191 7.38029 35.1053 8.73835 35.8483Z" fill="black"/>
<path d="M12.71 29.9292C12.71 29.5448 12.9919 29.2886 13.4018 29.2886C13.8118 29.2886 14.0937 29.5705 14.0937 29.9292C14.0937 30.2879 13.8118 30.5698 13.4018 30.5698C13.0175 30.5698 12.71 30.2879 12.71 29.9292Z" fill="black"/>
<path fill-rule="evenodd" clip-rule="evenodd" d="M10.4039 29.9292C10.4039 27.6999 11.4288 25.9575 13.4018 25.9575C15.3749 25.9575 16.3998 27.6999 16.3998 29.9292C16.3998 32.1841 15.3749 33.9265 13.4018 33.9265C11.4288 33.9265 10.4039 32.1841 10.4039 29.9292ZM15.5799 29.9292C15.5799 28.0843 14.7855 26.7006 13.4018 26.7006C12.0182 26.7006 11.2238 28.0843 11.2238 29.9292C11.2238 31.7741 12.0182 33.1578 13.4018 33.1578C14.7855 33.1578 15.5799 31.7741 15.5799 29.9292Z" fill="black"/>
<path d="M21.499 32.9785C21.3452 32.9785 21.2684 33.081 21.2171 33.2091C20.9865 33.7216 20.5253 34.106 19.8591 34.106C19.1929 34.106 18.7572 33.7216 18.5523 33.2091C18.501 33.081 18.4241 32.9785 18.2704 32.9785C18.1167 32.9785 18.0142 33.1066 18.0142 33.286C18.0142 33.4654 18.091 33.7216 18.1935 33.901C18.4498 34.3622 18.9366 34.8747 19.8847 34.8747C20.8328 34.8747 21.3196 34.3622 21.5759 33.901C21.6784 33.7472 21.7552 33.4654 21.7552 33.286C21.7552 33.1066 21.6784 32.9785 21.499 32.9785Z" fill="black"/>
<path d="M25.65 29.9292C25.65 29.5448 25.9319 29.2886 26.3419 29.2886C26.7518 29.2886 27.0337 29.5705 27.0337 29.9292C27.0337 30.2879 26.7518 30.5698 26.3419 30.5698C25.9319 30.5698 25.65 30.2879 25.65 29.9292Z" fill="black"/>
<path fill-rule="evenodd" clip-rule="evenodd" d="M23.3439 29.9292C23.3439 27.6999 24.3688 25.9575 26.3419 25.9575C28.3149 25.9575 29.3398 27.6999 29.3398 29.9292C29.3398 32.1841 28.3149 33.9265 26.3419 33.9265C24.3688 33.9265 23.3439 32.1841 23.3439 29.9292ZM28.5199 29.9292C28.5199 28.0843 27.7255 26.7006 26.3419 26.7006C24.9582 26.7006 24.1638 28.0843 24.1638 29.9292C24.1638 31.7741 24.9582 33.1578 26.3419 33.1578C27.7255 33.1578 28.5199 31.7741 28.5199 29.9292Z" fill="black"/>
<path d="M13.5812 53.9899C13.8375 53.9899 13.9656 53.8361 13.9656 53.6312C13.9656 53.5543 13.94 53.4774 13.8887 53.4005L7.48277 42.6386C7.4059 42.5105 7.27778 42.408 7.12404 42.408C6.8678 42.408 6.73969 42.5617 6.73969 42.7667C6.73969 42.8436 6.76531 42.9204 6.81656 42.9973L13.2225 53.7593C13.2994 53.8874 13.4275 53.9899 13.5812 53.9899Z" fill="black"/>
</svg>

<svg xmlns="http://www.w3.org/2000/svg" width="40" height="60" fill="none"><path fill="#F498AD" d="M30 1a9 9 0 0 1 9 9v20a9 9 0 0 1-9 9H19v11a9 9 0 1 1-18 0V30a9 9 0 0 1 9-9h11V10a9 9 0 0 1 9-9Z"/><path fill="#000" d="M32.697 7.995c.23 0 .384.154.384.36 0 .102-.026.178-.077.23l-6.406 10.762c-.077.128-.205.23-.359.23-.23 0-.384-.154-.384-.358 0-.103.026-.18.077-.231l6.406-10.762c.077-.128.205-.23.358-.23ZM30.544 25.266c0 .154.077.282.23.359 1.333.717 2.691 2.203 2.691 5.073 0 2.895-1.332 4.382-2.69 5.125-.154.102-.23.205-.23.358 0 .205.127.334.332.334.077 0 .18 0 .359-.103 1.435-.717 3.075-2.511 3.075-5.688 0-3.178-1.64-4.971-3.075-5.689-.18-.077-.282-.102-.359-.102-.205 0-.333.128-.333.333ZM8.738 35.848c.154.077.231.205.231.36 0 .204-.128.332-.333.332-.077 0-.18-.025-.359-.102-1.435-.718-3.075-2.511-3.075-5.689 0-3.177 1.64-4.945 3.075-5.688.18-.103.282-.103.359-.103.205 0 .333.128.333.333 0 .154-.077.257-.23.36-1.359.742-2.691 2.203-2.691 5.098 0 2.87 1.332 4.356 2.69 5.1ZM12.71 29.93c0-.385.282-.641.692-.641s.692.281.692.64-.282.64-.692.64c-.384 0-.692-.281-.692-.64Z"/><path fill="#000" fill-rule="evenodd" d="M10.404 29.93c0-2.23 1.025-3.973 2.998-3.973 1.973 0 2.998 1.743 2.998 3.972 0 2.255-1.025 3.997-2.998 3.997-1.973 0-2.998-1.742-2.998-3.997Zm5.176 0c0-1.846-.794-3.23-2.178-3.23s-2.178 1.384-2.178 3.23c0 1.844.794 3.228 2.178 3.228s2.178-1.384 2.178-3.229Z" clip-rule="evenodd"/><path fill="#000" d="M21.499 32.978c-.154 0-.23.103-.282.231-.23.513-.692.897-1.358.897-.666 0-1.102-.384-1.307-.897-.051-.128-.128-.23-.282-.23-.153 0-.256.128-.256.307 0 .18.077.436.18.615.256.461.743.974 1.69.974.949 0 1.436-.513 1.692-.974.102-.154.18-.436.18-.615 0-.18-.078-.308-.257-.308ZM25.65 29.93c0-.385.282-.641.692-.641s.692.281.692.64-.282.64-.692.64-.692-.281-.692-.64Z"/><path fill="#000" fill-rule="evenodd" d="M23.344 29.93c0-2.23 1.025-3.973 2.998-3.973 1.973 0 2.998 1.743 2.998 3.972 0 2.255-1.025 3.997-2.998 3.997-1.973 0-2.998-1.742-2.998-3.997Zm5.176 0c0-1.846-.794-3.23-2.178-3.23s-2.178 1.384-2.178 3.23c0 1.844.794 3.228 2.178 3.228s2.178-1.384 2.178-3.229Z" clip-rule="evenodd"/><path fill="#000" d="M13.581 53.99c.257 0 .385-.154.385-.359a.413.413 0 0 0-.077-.23L7.483 42.639c-.077-.129-.205-.231-.359-.231-.256 0-.384.154-.384.359 0 .077.025.153.077.23l6.405 10.762c.077.128.206.23.36.23Z"/></svg>
